scalable/mimetypes/video-x-generic.svg

<svg xmlns="http://www.w3.org/2000/svg" xmlns:xlink="http://www.w3.org/1999/xlink" viewBox="0 0 512 512"><g style="fill-opacity:.078"><path d="m32.563 0c-4.774 0-8.594 3.266-8.594 7.313v137.94 359.44c0 4.047 3.82 7.313 8.594 7.313h446.88c4.774 0 8.594-3.266 8.594-7.313v-359.44-.594l-144.66-144.66h-26.625-121.5-162.69"/><path d="m35.625 3.5c-4.709 0-8.5 3.196-8.5 7.188v136.06 354.56c0 3.991 3.791 7.188 8.5 7.188h440.75c4.709 0 8.5-3.196 8.5-7.188v-354.56-1.719l-141.53-141.53h-27.438-119.81-160.47"/><path d="m38.688 7c-4.643 0-8.375 3.158-8.375 7.094v134.19 349.63c0 3.936 3.732 7.094 8.375 7.094h434.63c4.643 0 8.375-3.158 8.375-7.094v-349.62-3l-138.28-138.28h-28.313-118.19-158.22"/></g><path d="m41.719 10.5c-4.578 0-8.25 3.119-8.25 7v132.28 344.72c0 3.881 3.672 7 8.25 7h428.56c4.578 0 8.25-3.119 8.25-7v-344.72-3.344l-135.97-135.94h-28.313-116.5-156.03" style="fill:#b93d48"/><path d="m63.47 24.03v16.16h44.531v-16.16h-44.531m0 47.22v1 1 33.688h44.531v-35.688h-44.531m0 66.72v1 1 33.75h44.531v-35.75h-44.531m340.53 8.469v27.28h44.531v-27.28h-44.531m-340.53 58.28v1 1 33.75h44.531v-35.75h-44.531m340.53 0v1 1 33.75h44.531v-35.75h-44.531m-340.53 66.781v1 1 33.688h44.531v-35.688h-44.531m340.53 0v1 1 33.688h44.531v-35.688h-44.531m-340.53 66.781v1 1 33.656h44.531v-35.656h-44.531m340.53 0v1 1 33.656h44.531v-35.656h-44.531m-340.53 66.72v1 1 33.719h44.531v-35.719h-44.531m340.53 0v1 1 33.719h44.531v-35.719h-44.531m-340.53 66.75v1 1 14.219h44.531v-16.219h-44.531m340.53 0v1 1 14.219h44.531v-16.219h-44.531" style="fill:#fff"/><path d="m174.63 194.59c-22.467 0-40.563 18.06-40.563 40.531v108.41c0 7.971 9.776 17.931 16.16 32.25l136.72 125.72h183.34c4.578 0 8.25-3.119 8.25-7v-175.62l-112.44-112.44c-7.33-7.33-17.485-11.844-28.719-11.844h-162.75" style="opacity:.25"/><path d="m174.62 194.58h162.77c22.467 0 40.554 18.09 40.554 40.554v108.4c0 22.467-18.09 40.554-40.554 40.554h-162.77c-22.467 0-40.554-18.09-40.554-40.554v-108.4c0-22.467 18.09-40.554 40.554-40.554" style="fill:#fff"/><path d="m220.4375 235.74314a11.805919 11.805919 0 0 0 -11.09375 11.8125v83.56a11.805919 11.805919 0 0 0 17.875 10.125l69.72-41.781a11.805919 11.805919 0 0 0 0 -20.25l-69.72-41.781a11.805919 11.805919 0 0 0 -5.59375 -1.6875 11.805919 11.805919 0 0 0 -1.1875 0" style="fill:#b93d48;color:#000"/><path d="m478.53 146.44l-135.97-135.94v128.94c0 3.881 3.672 7 8.25 7h127.72" id="0" style="fill:#fff;fill-opacity:.196"/><path d="M 478.53,146.44 342.56,10.5 558.51,226.45 694.48,362.39 z" style="fill-opacity:.196"/><use width="1" height="1" xlink:href="#0"/><path d="m345.03 144.56l133.5 129.38v-124.16-3.344h-127.72c-2.185 0-4.154-.71-5.625-1.875h-.156" style="fill-opacity:.196"/></svg>

<?xml version="1.0" encoding="UTF-8" standalone="no"?>
<!-- Created with Inkscape (http://www.inkscape.org/) -->

<svg
   xmlns:dc="http://purl.org/dc/elements/1.1/"
   xmlns:cc="http://creativecommons.org/ns#"
   xmlns:rdf="http://www.w3.org/1999/02/22-rdf-syntax-ns#"
   xmlns:svg="http://www.w3.org/2000/svg"
   xmlns="http://www.w3.org/2000/svg"
   xmlns:xlink="http://www.w3.org/1999/xlink"
   xmlns:inkscape="http://www.inkscape.org/namespaces/inkscape"
   version="1.1"
   width="100%"
   height="100%"
   viewBox="0 0 512 512"
   id="svg2">
  <metadata
     id="metadata33">
    <rdf:RDF>
      <cc:Work
         rdf:about="">
        <dc:format>image/svg+xml</dc:format>
        <dc:type
           rdf:resource="http://purl.org/dc/dcmitype/StillImage" />
      </cc:Work>
    </rdf:RDF>
  </metadata>
  <defs
     id="defs31" />
  <g
     id="g4"
     style="fill-opacity:0.078">
    <path
       d="m 32.563,0 c -4.774,0 -8.594,3.266 -8.594,7.313 v 137.94 359.44 c 0,4.047 3.82,7.313 8.594,7.313 h 446.88 c 4.774,0 8.594,-3.266 8.594,-7.313 v -359.44 -0.594 L 343.377,-0.001 h -26.625 -121.5 -162.69"
       inkscape:connector-curvature="0"
       id="path6" />
    <path
       d="m 35.625,3.5 c -4.709,0 -8.5,3.196 -8.5,7.188 v 136.06 354.56 c 0,3.991 3.791,7.188 8.5,7.188 h 440.75 c 4.709,0 8.5,-3.196 8.5,-7.188 v -354.56 -1.719 L 343.345,3.499 H 315.907 196.097 35.627"
       inkscape:connector-curvature="0"
       id="path8" />
    <path
       d="m 38.688,7 c -4.643,0 -8.375,3.158 -8.375,7.094 v 134.19 349.63 c 0,3.936 3.732,7.094 8.375,7.094 h 434.63 c 4.643,0 8.375,-3.158 8.375,-7.094 v -349.62 -3 L 343.413,7.014 H 315.1 196.91 38.69"
       inkscape:connector-curvature="0"
       id="path10" />
  </g>
  <path
     d="m 41.719,10.5 c -4.578,0 -8.25,3.119 -8.25,7 V 149.78 494.5 c 0,3.881 3.672,7 8.25,7 h 428.56 c 4.578,0 8.25,-3.119 8.25,-7 V 149.78 146.436 L 342.559,10.496 h -28.313 -116.5 -156.03"
     inkscape:connector-curvature="0"
     id="path12"
     style="fill:#b93d48" />
  <path
     d="m 63.47,24.03 v 16.16 h 44.531 V 24.03 H 63.47 m 0,47.22 v 1 1 33.688 h 44.531 V 71.25 H 63.47 m 0,66.72 v 1 1 33.75 h 44.531 V 137.97 H 63.47 M 404,146.439 v 27.28 h 44.531 v -27.28 H 404 m -340.53,58.28 v 1 1 33.75 h 44.531 v -35.75 H 63.47 m 340.53,0 v 1 1 33.75 h 44.531 v -35.75 H 404 M 63.47,271.5 v 1 1 33.688 h 44.531 V 271.5 H 63.47 m 340.53,0 v 1 1 33.688 h 44.531 V 271.5 H 404 M 63.47,338.281 v 1 1 33.656 h 44.531 V 338.281 H 63.47 m 340.53,0 v 1 1 33.656 h 44.531 V 338.281 H 404 m -340.53,66.72 v 1 1 33.719 h 44.531 V 405.001 H 63.47 m 340.53,0 v 1 1 33.719 h 44.531 V 405.001 H 404 m -340.53,66.75 v 1 1 14.219 h 44.531 V 471.751 H 63.47 m 340.53,0 v 1 1 14.219 h 44.531 V 471.751 H 404"
     inkscape:connector-curvature="0"
     id="path14"
     style="fill:#ffffff" />
  <path
     d="m 174.63,194.59 c -22.467,0 -40.563,18.06 -40.563,40.531 v 108.41 c 0,7.971 9.776,17.931 16.16,32.25 l 136.72,125.72 h 183.34 c 4.578,0 8.25,-3.119 8.25,-7 v -175.62 l -112.44,-112.44 c -7.33,-7.33 -17.485,-11.844 -28.719,-11.844 h -162.75"
     inkscape:connector-curvature="0"
     id="path16"
     style="opacity:0.25" />
  <path
     d="m 174.62,194.58 h 162.77 c 22.467,0 40.554,18.09 40.554,40.554 v 108.4 c 0,22.467 -18.09,40.554 -40.554,40.554 H 174.62 c -22.467,0 -40.554,-18.09 -40.554,-40.554 v -108.4 c 0,-22.467 18.09,-40.554 40.554,-40.554"
     inkscape:connector-curvature="0"
     id="path18"
     style="fill:#ffffff" />
  <path
     d="m 220.4375,235.74314 a 11.805919,11.805919 0 0 0 -11.09375,11.8125 v 83.56 a 11.805919,11.805919 0 0 0 17.875,10.125 l 69.72,-41.781 a 11.805919,11.805919 0 0 0 0,-20.25 l -69.72,-41.781 a 11.805919,11.805919 0 0 0 -5.59375,-1.6875 11.805919,11.805919 0 0 0 -1.1875,0"
     inkscape:connector-curvature="0"
     id="path20"
     style="color:#000000;fill:#b93d48" />
  <path
     d="M 478.53,146.44 342.56,10.5 v 128.94 c 0,3.881 3.672,7 8.25,7 h 127.72"
     inkscape:connector-curvature="0"
     id="0"
     style="fill:#ffffff;fill-opacity:0.19599998" />
  <path
     d="M 478.53,146.44 342.56,10.5 558.51,226.45 694.48,362.39 z"
     inkscape:connector-curvature="0"
     id="path23"
     style="fill-opacity:0.19599998" />
  <use
     id="use25"
     x="0"
     y="0"
     width="1"
     height="1"
     xlink:href="#0" />
  <path
     d="m 345.03,144.56 133.5,129.38 V 149.78 146.436 H 350.81 c -2.185,0 -4.154,-0.71 -5.625,-1.875 h -0.156"
     inkscape:connector-curvature="0"
     id="path27"
     style="fill-opacity:0.19599998" />
</svg>
